X:1
T:Eheu sustulerunt - Morley
T:James Gibb editions
T:#
%%score [ 1 2 3 4 ]
L:1/8
Q:1/4=90
M:4/4
K:D
V:1 treble nm="Soprano" snm="S"
V:2 treble nm="Alto" snm="A"
V:3 treble-8 nm="Tenor" snm="T"
V:4 bass nm="Bass" snm="B"
V:1
"^Thomas Morley \n(1557-1603)""^Eheu, sustulerunt" E8 | B8 | z2 F2 B4 | z2 G2 F4 | %4
w: E-|heu,|e- heu,|e- heu,|
 z2 (e2- ed dc/B/ |[M:4/4] c4 B2 (B2- | B2 ^A2) B4 | z4 z2 B2- | B2 A2 d4 | c6 d2- | dc B4 ^A2 | %11
w: e\- * * * * *|* heu, e\-|* * heu,|sus\-|* tu- le-|runt, Do\-|* mi- num me-|
 B4 z4 | z2 e3 e d2 | c2 B2 ^A2 B2- | B2 ^A2) B4 | z4 z2 B2- | B2 A2 d4 | c4 z2 f2- | %18
w: um,|Do- mi- num|me\- * * *|* * um,|sus\-|* tu- le-|runt Do\-|
 ff e2 (d2 cd | e4 B4 | c4 F4 | z4 z2 B2 | ^A2 A2 B2 F2 | G3 A) B4 | z2 e2 ^d2 d2 | e2 B2 B4 | %26
w: * mi- num me\- * *|* um,|me- um,|et|po- su- e- runt|e\- * um,|et po- su-|e- runt e-|
 B2 e2 c2 c2 | ^d2 d2 (e3 =d | =c4 B4) | B8 | z2 e3 d c2 | (B2 A2) ^G2 B2- | BA G2 F4 | %33
w: um, et po- su-|e- runt e\- *||um|ne- sci- o|u\- * bi, ne\-|* sci- o u-|
 E2 d3 c B2 | (^A2 B4 A2) | B4 z2 B2- | BA G2 F4- | F4 E2 e2- |[Q:1/4=89] ed[Q:1/4=87] =c2 | %39
w: bi, ne- sci- o|u\- * *|bi, ne\-|* sci- o u\-|* bi, ne\-|* sci- o|
[Q:1/4=85] B8[Q:1/4=83][Q:1/4=80] |[Q:1/4=80] B8 |] %41
w: u-|bi.|
V:2
 z8 | E8 | ^D6 B,2 | E2 (E2- E^D/C/ D2 | E2 G2) F4 |[M:4/4] z2 (F4 E2) | F4 z2 F2- | F2 D2 G4 | %8
w: |E-|heu, e-|heu, e\- * * * *|* * heu,|e\- *|heu, sus\-|* tu- le-|
 F2 A4 ^G2 | A2 F3 F F2 | (D2 E2) F2 F2- | FE D2 C4 | B,2 G3 G F2 | (E2 G2) F4 | z2 F4 D2 | G4 F4 | %16
w: runt Do- mi-|num, Do- mi- num|me * um, Do|* mi- num me-|um, Do- mi- num|me * um,|sus- tu-|le- runt|
 z2 F3 F ^G2 | A4 A4 | z2 B3 B A2 | (G2 E2 G2 F2 | E2 C2) ^D2 B,2 | F,2 F2 F2 E2 | F2 C2 (^D E2 D | %23
w: Do- mi- num|me- um,|Do- mi- num|me\- * * *|* * um, me-|um, et po- su-|e- runt e\- * *|
 E4 B,2 B2 | B2 ^A2 B2 F2 | G4 F4 | (G2 B4 ^A2 | B4) E2 B2 | A3 A A2 G2 | F4 ^G2 G2- | %30
w: * um, et|po- su- e- runt|e- um,|e\- * *|* um, et|po- su- e- runt|e- um ne\-|
 GF E2 F^G A2) | E4 z2 G2- | GF E2 (^D E2 D) | E2 z2 z2 F2- | FE D2 C4 | B,2 G3 F E2 | F2 B,4 z2 | %37
w: * sci- o u\- * *|bi, ne\-|* sci- o u\- * *|bi, ne\-|* sci- o u-|bi, ne- sci- o|u- bi,|
 z2 B3 A !courtesy!=G2 | F2 E2 | ^D2 E4 D2 | E8 |] %41
w: ne- sci- o|u\- *||bi.|
V:3
 z8 | G8 | F8 | z2 E2 B4 | z2 e2 B4 |[M:4/4][K:treble-8] z2 (c2 d2 B2 | c4) ^d4 | z2 B4 G2 | %8
w: |E-|heu,|e- heu,|e- heu,|e\- * *|* heu,|sus- tu-|
 d3 c B2 B2 | A2 A4 F2 | B3 c dd c2 | B4 F4 | z2 B4 F2 | GE e3 e d2 | c4 B2 B2- | B2 G2 d2 d2 | %16
w: le- runt Do- mi-|num, sus- tu-|le- runt Do- mi- num|me- um,|sus- tu-|le- runt Do- mi- num|me- um, sus\-|* tu- le- runt|
 c3 c B4 | (A3 B c2 d2- | dc B2 f4) | B2 (G3 A B2- | B2 ^A2) B2 !courtesy!=d2 | c2 c2 d2 B2 | %22
w: Do- mi- num|me\- * * *||um, me\- * *|* * um, et|po- su- e- runt|
 c4 B4 | z2 g2 f2 f2 | g2 e2 f4 | e2 e2 ^d2 d2 | e2 g2 f4 | B4 z2 e2 | ee f2 ^d2 (e2- | %29
w: e- um,|et po- su-|e- runt e-|um, et po- su-|e- runt e-|um, et|po- su- e- runt e\-|
 e2 ^d2) e4 | z4 z2 e2- | ed c2 B4 | E2 z2 z4 | z2 f3 e d2 | (c2 f3 e c2) | ^d2 =d3 c B2 | %36
w: * * um|ne\-|* sci- o u-|bi,|ne- sci- o|u\- * * *|bi, ne- sci- o|
 (c^d e2) d2 =d2- | dc (BA) (^GA B2) | A2 A2- | AA G2 F4 | ^G8 |] %41
w: u\- * * bi, ne\-|* sci- o * u\- * *|bi, ne\-|* sci- o u-|bi.|
V:4
 z8 | E,8 | B,,8 | z4 z2 B,,2 | E,4 z2 (B,2- |[M:4/4] B,^A,/^G,/ A,2 B,2 =G,2) | F,4 B,,4- | %7
w: |E-|heu,|e-|heu, e\-||* heu,|
 B,,4 z4 | z8 | z2 F,4 D,2 | G,4 F,4 | z2 B,3 B, A,2 | (G,2 E,2) B,,4 | (E,4 F,4- | F,4 B,,4 | %15
w: ||sus- tu-|le- runt|Do- mi- num|me\- * um,|me\- *|* um,|
 (E,4 B,,C,D,E,) | F,4 z4 | z2 F,4 D,2 | (G,4) F,4) | E,2 E,3 E, D,2 | C,4 B,,2 B,2 | %21
w: me\- * * * *|um,|sus- tu-|le\- *|runt Do- mi- num|me- um, et|
 ^A,2 A,2 B,2 G,2 | F,4 B,,4 | z2 E,2 ^D,2 D,2 | E,2 C,2 B,,4 | E,4 z4 | z8 | z2 B,2 ^G,2 G,2 | %28
w: po- su- e- runt|e- um,|et po- su-|e- runt e-|um,||et po- su-|
 A,2 A,2 B,4- | B,4 E,2 E2- | ED C2 (B,2 A,2 | ^G,2 A,2) E,2 E,2- | E,F, (!courtesy!=G,A,) B,4 | %33
w: e- runt e\-|* um, ne\-|* sci- o u\- *|* * bi, ne\-|* sci- o * u-|
 E,2 B,,3 C, (D,E,) | F,8 | B,,2 B,3 A, G,2 | (F,2 E,2) B,2 B,,2- | B,,C, ^D,2 E,4 | A,,4 | B,,8 | %40
w: bi, ne- sci- o *|u-|bi, ne- sci- o|u\- * bi, ne\-|* sci- o u\-|||
 E,8 |] %41
w: bi.|

